packages/kaspersky-hexa-ui-icons/src/iconsSVGs/24/FontBold.svg

<svg width="24" height="24" viewBox="0 0 24 24" fill="none" xmlns="http://www.w3.org/2000/svg">
<path d="M4.03516 2.55005H12.2972C14.3132 2.55005 15.8612 3.00005 16.9412 3.90005C18.0392 4.80005 18.5882 5.99705 18.5882 7.49105C18.5882 9.11105 17.9222 10.245 16.5902 10.893V11.4331C17.6702 11.7391 18.4982 12.2701 19.0742 13.0261C19.6682 13.7821 19.9652 14.727 19.9652 15.861C19.9652 16.887 19.7312 17.8231 19.2632 18.6691C18.7952 19.5151 18.0662 20.1901 17.0762 20.6941C16.1042 21.1981 14.8712 21.4501 13.3772 21.4501H4.03516V2.55005ZM12.1892 9.89405C12.9092 9.89405 13.4582 9.74105 13.8362 9.43505C14.2142 9.11105 14.4032 8.66105 14.4032 8.08505C14.4032 7.50905 14.2142 7.07705 13.8362 6.78905C13.4582 6.48305 12.9092 6.33005 12.1892 6.33005H8.19316V9.89405H12.1892ZM13.3232 17.6701C14.0432 17.6701 14.6282 17.5081 15.0782 17.1841C15.5282 16.8421 15.7532 16.338 15.7532 15.672C15.7532 15.006 15.5282 14.5111 15.0782 14.187C14.6282 13.845 14.0432 13.6741 13.3232 13.6741H8.19316V17.6701H13.3232Z" fill="black"/>
</svg>

<svg xmlns="http://www.w3.org/2000/svg" width="24" height="24" fill="none" viewBox="0 0 24 24"><path fill="#000" fill-rule="evenodd" d="M4.0352 2.55h8.262q3.024 0 4.644 1.35 1.647 1.35 1.647 3.591 0 2.43-1.998 3.402v.5401q1.62.459 2.484 1.593.891 1.134.891 2.8349 0 1.5391-.702 2.8081t-2.187 2.025q-1.458.756-3.699.756h-9.342zm8.154 7.344q1.08 0 1.647-.459.567-.486.567-1.35t-.567-1.296q-.567-.459-1.647-.459h-3.996v3.564zm1.134 7.7761q1.08 0 1.755-.486.675-.513.675-1.5121t-.675-1.485q-.675-.513-1.755-.5129h-5.13v3.996z"/></svg>
